svg/300/outlined/task_alt-fill.svg

<svg xmlns="http://www.w3.org/2000/svg" width="48" height="48" viewBox="0 -960 960 960"><path d="M480.067-100.001q-78.836 0-148.204-29.728-69.369-29.727-120.874-81.21-51.506-51.483-81.247-120.821-29.741-69.337-29.741-148.173t29.733-148.204q29.733-69.369 81.225-120.874 51.492-51.506 120.842-81.247Q401.15-859.999 480-859.999q63.128 0 119.371 18.962 56.244 18.962 103.09 52.5l-43.306 44.076q-38.308-26.385-83.453-40.885-45.145-14.5-95.702-14.5-132.923 0-226.385 93.461Q160.154-612.923 160.154-480t93.461 226.385Q347.077-160.154 480-160.154t226.385-93.461Q799.846-347.077 799.846-480q0-22-2.846-42.229-2.846-20.228-8.154-39.619l47.999-48.383q11.384 30.616 17.269 63.079 5.885 32.463 5.885 67.152 0 78.85-29.728 148.199-29.727 69.35-81.21 120.842-51.483 51.492-120.821 81.225-69.337 29.733-148.173 29.733Zm-56.606-210.846L267.463-467.461l42.46-42.845 114.154 114.154 393.077-393.077 42.845 41.845-436.538 436.537Z"/></svg>

<svg xmlns="http://www.w3.org/2000/svg" width="48" height="48" viewBox="0 -960 960 960"><path d="M480.07-100q-78.84 0-148.21-29.73t-120.87-81.21q-51.51-51.48-81.25-120.82Q100-401.1 100-479.93q0-78.84 29.73-148.21 29.74-69.37 81.23-120.87 51.49-51.51 120.84-81.25Q401.15-860 480-860q63.13 0 119.37 18.96 56.25 18.96 103.09 52.5l-43.3 44.08q-38.31-26.39-83.46-40.89-45.14-14.5-95.7-14.5-132.92 0-226.38 93.47-93.47 93.46-93.47 226.38 0 132.92 93.47 226.38 93.46 93.47 226.38 93.47 132.92 0 226.38-93.47 93.47-93.46 93.47-226.38 0-22-2.85-42.23-2.85-20.23-8.15-39.62l47.99-48.38q11.39 30.61 17.27 63.08Q860-514.69 860-480q0 78.85-29.73 148.2t-81.21 120.84q-51.48 51.49-120.82 81.23Q558.9-100 480.07-100Zm-56.61-210.85-156-156.61 42.46-42.85 114.16 114.16 393.07-393.08L860-747.38 423.46-310.85Z"/></svg>
